source/img/icon-insta-mobile.svg

<svg xmlns="http://www.w3.org/2000/svg" width="16" height="16" viewBox="0 0 16 16" enable-background="new 0 0 16 16"><style type="text/css">.st0 { fill: #231F20; }</style><path class="st0" d="M11.8 1c1.8 0 3.2 1.4 3.2 3.2v7.7c0 1.7-1.4 3.1-3.1 3.1h-7.7c-1.8 0-3.2-1.4-3.2-3.2v-7.6c0-1.8 1.4-3.2 3.2-3.2h7.6m0-1h-7.6c-2.3 0-4.2 1.9-4.2 4.2v7.7c0 2.2 1.9 4.1 4.2 4.1h7.7c2.3 0 4.2-1.9 4.2-4.2v-7.6c-.1-2.3-2-4.2-4.3-4.2zM8 4.9c1.7 0 3.1 1.4 3.1 3.1 0 1.7-1.4 3.1-3.1 3.1-1.7 0-3.1-1.4-3.1-3.1 0-1.7 1.4-3.1 3.1-3.1m0-1c-2.3 0-4.1 1.8-4.1 4.1s1.8 4.1 4.1 4.1 4.1-1.8 4.1-4.1-1.8-4.1-4.1-4.1z"/><circle class="st0" cx="12.3" cy="3.7" r=".9"/></svg>

<?xml version="1.0" encoding="utf-8"?>
<!-- Generator: Adobe Illustrator 21.0.0, SVG Export Plug-In . SVG Version: 6.00 Build 0) -->
<svg version="1.1" id="Layer_1" xmlns="http://www.w3.org/2000/svg" xmlns:xlink="http://www.w3.org/1999/xlink" x="0px" y="0px" viewBox="0 0 16 16" style="enable-background:new 0 0 16 16;" xml:space="preserve">
  <style type="text/css">
    .st0 {
      fill: #231F20;
    }
  </style>
  <path class="st0" d="M11.8,1C13.6,1,15,2.4,15,4.2v7.7c0,1.7-1.4,3.1-3.1,3.1H4.2C2.4,15,1,13.6,1,11.8V4.2C1,2.4,2.4,1,4.2,1
  L11.8,1 M11.8,0H4.2C1.9,0,0,1.9,0,4.2v7.7C0,14.1,1.9,16,4.2,16h7.7c2.3,0,4.2-1.9,4.2-4.2V4.2C16,1.9,14.1,0,11.8,0L11.8,0z"/>
  <path class="st0" d="M8,4.9c1.7,0,3.1,1.4,3.1,3.1c0,1.7-1.4,3.1-3.1,3.1c-1.7,0-3.1-1.4-3.1-3.1C4.9,6.3,6.3,4.9,8,4.9 M8,3.9
  C5.7,3.9,3.9,5.7,3.9,8s1.8,4.1,4.1,4.1s4.1-1.8,4.1-4.1S10.3,3.9,8,3.9L8,3.9z"/>
  <circle class="st0" cx="12.3" cy="3.7" r="0.9"/>
</svg>
